X:3
%%staffsep .6in
%%staffwidth 650
T:望春风 (Longing for the Spring Breeze)
T:(Hulusi in Bb 2)
C:Composed by 鄧雨賢
C:Arranged by 罗子俊
M:4/4
L:1/8
Q:1/4=75
%%barnumbers 0
%%measurenb 0
V:1 clef=treble
%%jianpu 1
K:Bbmaj
%%visualtranspose -10_of_semitones
F3 F G2 B2 | c2 Bc d4 | f3 d dc B2 | c6 z2 | 
d3 f f2 df | B3 c c4 | F3 d d2 c2 | B6 z2 | 
c3 c d2 cB | G2 FG B4 | G3 B c2 d2 | f6 z2 | 
f3 f g2 fd | d2 cB G4 | F3 d d2 c2 | B6 z2  ||
F3 F G2 B2 | cd/2c/2 Bc d4 | fddc dBcd | c6 z2 | 
d3 f fddc | dBcd c4 | FGBd fdcA | Bf/2d/2 dc B4 |
cA/2B/2 cf dc/2d/2 Bc/2d/2 | GA/2B/2 c/2B/2A/2G/2 FG/2A/2 BF | GA/2B/2 cB/2c/2 dc/2d/2 fd/2f/2 | gf/2d/2 c/2B/2A/2G/2 F4 | 
fddf gffd | cdcB G4 | FG/2A/2 B/2c/2d/2f/2 gf/2d/2 c/2B/2c/2A/2 | B/2F/2G/2A/2 B/2c/2d/2c/2 B4 ||
F3 F G2 B2 | c2 Bc d4 | f3 d dc B2 | c6 z2 | 
d3 f f2 df | B3 c c4 | F3 d d2 c2 | B6 z2 | 
c3 c d2 cB | G2 FG B4 | G3 B c2 d2 | f6 z2 | 
f3 f g2 fd | d2 cB G4 | F3 d d2 c2 | B6 z2 | F8 |]

